svg/ev_plug_iec_62196_t1.svg

<svg xmlns="http://www.w3.org/2000/svg" width="24" height="24" viewBox="0 0 24 24"><path d="M12 2a10 10 0 1 0 10 10A10 10 0 0 0 12 2zm0 18a8 8 0 1 1 8-8 8 8 0 0 1-8 8zm6-7.25a1.25 1.25 0 1 1-1.25-1.25A1.25 1.25 0 0 1 18 12.75zm-4.5 3.75A1.5 1.5 0 1 1 12 15a1.5 1.5 0 0 1 1.5 1.5zm-5-3.75a1.25 1.25 0 1 1-1.25-1.25 1.25 1.25 0 0 1 1.25 1.25zm1-2.75A1.5 1.5 0 1 1 11 8.5 1.5 1.5 0 0 1 9.5 10zm5 0A1.5 1.5 0 1 1 16 8.5a1.5 1.5 0 0 1-1.5 1.5z"/><path fill="none" d="M0 0h24v24H0z"/></svg>

<svg xmlns="http://www.w3.org/2000/svg" width="24" height="24" viewBox="0 0 24 24"><path d="M12,2A10,10,0,1,0,22,12,10,10,0,0,0,12,2Zm0,18a8,8,0,1,1,8-8A8,8,0,0,1,12,20Zm6-7.25a1.25,1.25,0,1,1-1.25-1.25A1.25,1.25,0,0,1,18,12.75ZM13.5,16.5A1.5,1.5,0,1,1,12,15,1.5,1.5,0,0,1,13.5,16.5Zm-5-3.75A1.25,1.25,0,1,1,7.25,11.5,1.25,1.25,0,0,1,8.5,12.75ZM9.5,10A1.5,1.5,0,1,1,11,8.5,1.5,1.5,0,0,1,9.5,10Zm5,0A1.5,1.5,0,1,1,16,8.5,1.5,1.5,0,0,1,14.5,10Z"/><rect width="24" height="24" fill="none"/></svg>
